contributed-vectors/pons_translate.svg

<svg xmlns="http://www.w3.org/2000/svg" xml:space="preserve" style="fill-rule:evenodd;clip-rule:evenodd;stroke-linejoin:round;stroke-miterlimit:2" viewBox="0 0 192 192"><path d="M19.5 29.5v91.979h153V29.5c0-5.519-4.481-10-10-10h-133c-5.519 0-10 4.481-10 10Z" style="fill:#98dc9a"/><path d="M172.5 121.479h-153V162.5c0 5.519 4.481 10 10 10h133c5.519 0 10-4.481 10-10v-41.021Z" style="fill:#71a372"/><path d="M94.929 92.327c15.863 0 28.741 12.878 28.741 28.741 0 35.504-41.352 35.813-41.352 35.813v-10.045s-16.13-7.818-16.13-25.768c0-15.863 12.879-28.741 28.741-28.741Z" style="fill:#ebebeb" transform="matrix(.78759 0 0 .78759 21.235 23.432)"/><text x="36.259" y="63.195" style="font-family:&quot;Now-Medium&quot;,&quot;Now&quot;;font-weight:500;font-size:49.232px;fill:#fff" transform="translate(41.25 39.415) scale(.48795)">P<tspan x="68.653px 114.464px 157.689px" y="63.195px 63.195px 63.195px">ONS</tspan></text></svg>

<?xml version="1.0" encoding="UTF-8" standalone="no"?>
<!DOCTYPE svg PUBLIC "-//W3C//DTD SVG 1.1//EN" "http://www.w3.org/Graphics/SVG/1.1/DTD/svg11.dtd">
<svg width="100%" height="100%" viewBox="0 0 192 192" version="1.1" xmlns="http://www.w3.org/2000/svg" xmlns:xlink="http://www.w3.org/1999/xlink" xml:space="preserve" xmlns:serif="http://www.serif.com/" style="fill-rule:evenodd;clip-rule:evenodd;stroke-linejoin:round;stroke-miterlimit:2;">
    <g transform="matrix(1,0,0,1,8,8)">
        <g>
            <g transform="matrix(1,0,0,1,-8,-8)">
                <path d="M19.5,29.5L19.5,121.479L172.5,121.479L172.5,29.5C172.5,23.981 168.019,19.5 162.5,19.5L29.5,19.5C23.981,19.5 19.5,23.981 19.5,29.5Z" style="fill:rgb(152,220,154);"/>
            </g>
            <g transform="matrix(1,0,0,1,-8,-8)">
                <path d="M172.5,121.479L19.5,121.479L19.5,162.5C19.5,168.019 23.981,172.5 29.5,172.5L162.5,172.5C168.019,172.5 172.5,168.019 172.5,162.5L172.5,121.479Z" style="fill:rgb(113,163,114);"/>
            </g>
        </g>
    </g>
    <g id="Layer1">
        <g transform="matrix(0.787587,0,0,0.787587,21.2349,23.4319)">
            <path d="M94.929,92.327C110.792,92.327 123.67,105.205 123.67,121.068C123.67,156.572 82.318,156.881 82.318,156.881L82.318,146.836C82.318,146.836 66.188,139.018 66.188,121.068C66.188,105.205 79.067,92.327 94.929,92.327Z" style="fill:rgb(235,235,235);"/>
        </g>
        <g transform="matrix(0.487952,0,0,0.487952,41.2493,39.4152)">
            <text x="36.259px" y="63.195px" style="font-family:'Now-Medium', 'Now';font-weight:500;font-size:49.232px;fill:white;">P<tspan x="68.653px 114.464px 157.689px " y="63.195px 63.195px 63.195px ">ONS</tspan></text>
        </g>
    </g>
</svg>
